packages/assets/static/images/icons/file-image.svg

<svg width="24" height="24" viewBox="0 0 24 24" xmlns="http://www.w3.org/2000/svg" fill="currentColor" aria-hidden="true"> <path d="M11.8123 13.6261C11.7097 13.4714 11.5704 13.3445 11.4068 13.2567C11.2432 13.1689 11.0604 13.123 10.8748 13.123C10.6891 13.123 10.5064 13.1689 10.3428 13.2567C10.1792 13.3445 10.0399 13.4714 9.93729 13.6261L8.53104 15.7336L7.90291 14.7877C7.79925 14.6324 7.65858 14.5054 7.49359 14.4181C7.32861 14.3308 7.14449 14.2859 6.95783 14.2875C6.77117 14.2891 6.58784 14.3371 6.42435 14.4272C6.26087 14.5173 6.12238 14.6466 6.02135 14.8036L2.42885 20.392C2.3196 20.562 2.25811 20.7582 2.25085 20.9601C2.24359 21.1619 2.29082 21.3621 2.38759 21.5394C2.48436 21.7167 2.62709 21.8647 2.8008 21.9678C2.9745 22.071 3.17277 22.1254 3.37479 22.1255H15.3748C15.5786 22.1258 15.7786 22.0707 15.9536 21.9662C16.1285 21.8616 16.2718 21.7115 16.368 21.5319C16.4643 21.3523 16.51 21.1498 16.5002 20.9463C16.4903 20.7427 16.4254 20.5456 16.3123 20.3761L11.8123 13.6261ZM5.43729 19.8755L6.98416 17.4661L7.59823 18.3858C7.70085 18.5405 7.84016 18.6674 8.00374 18.7552C8.16732 18.843 8.35008 18.8889 8.53573 18.8889C8.72137 18.8889 8.90414 18.843 9.06772 18.7552C9.23129 18.6674 9.37061 18.5405 9.47323 18.3858L10.8795 16.2783L13.2729 19.8755H5.43729ZM21.4207 7.45455L16.1707 2.20455C16.0662 2.10011 15.9421 2.0173 15.8055 1.96084C15.6689 1.90437 15.5226 1.87537 15.3748 1.87549H6.37479C5.87751 1.87549 5.40059 2.07303 5.04896 2.42466C4.69733 2.77629 4.49979 3.25321 4.49979 3.75049V11.6255C4.49979 11.9239 4.61831 12.21 4.82929 12.421C5.04027 12.632 5.32642 12.7505 5.62479 12.7505C5.92316 12.7505 6.20931 12.632 6.42028 12.421C6.63126 12.21 6.74979 11.9239 6.74979 11.6255V4.12549H13.8748V8.62549C13.8748 8.92386 13.9933 9.21001 14.2043 9.42098C14.4153 9.63196 14.7014 9.75049 14.9998 9.75049H19.4998V19.8755C19.2014 19.8755 18.9153 19.994 18.7043 20.205C18.4933 20.416 18.3748 20.7021 18.3748 21.0005C18.3748 21.2989 18.4933 21.585 18.7043 21.796C18.9153 22.007 19.2014 22.1255 19.4998 22.1255H19.8748C20.3721 22.1255 20.849 21.9279 21.2006 21.5763C21.5522 21.2247 21.7498 20.7478 21.7498 20.2505V8.25049C21.7499 8.10271 21.7209 7.95635 21.6644 7.81978C21.608 7.68321 21.5252 7.55911 21.4207 7.45455ZM16.1248 5.34424L18.281 7.50049H16.1248V5.34424Z"/> </svg>

<svg viewBox="0 0 24 24" xmlns="http://www.w3.org/2000/svg" aria-hidden="true" fill="currentColor"><path d="M11.812 13.626a1.125 1.125 0 0 0-1.875 0l-1.406 2.108-.628-.946a1.124 1.124 0 0 0-1.882.016L2.43 20.392a1.126 1.126 0 0 0 .946 1.733h12a1.126 1.126 0 0 0 .937-1.749zm-6.375 6.25 1.547-2.41.614.92a1.125 1.125 0 0 0 1.875 0l1.406-2.108 2.394 3.598zM21.421 7.454l-5.25-5.25a1.12 1.12 0 0 0-.796-.33h-9A1.875 1.875 0 0 0 4.5 3.75v7.876a1.125 1.125 0 1 0 2.25 0v-7.5h7.125v4.5A1.125 1.125 0 0 0 15 9.75h4.5v10.125a1.125 1.125 0 1 0 0 2.25h.375a1.875 1.875 0 0 0 1.875-1.875v-12a1.13 1.13 0 0 0-.33-.795m-5.296-2.11L18.28 7.5h-2.156z"/></svg>
